images/indikatorenset/4299.svg

<svg class="highcharts-root" xmlns="http://www.w3.org/2000/svg" viewBox="0 0 485 415" font-family="Arial" font-size="12">
    <defs>
        <clipPath id="a">
            <path fill="none" d="M0 0h377v254H0z"/>
        </clipPath>
        <clipPath id="b">
            <path fill="none" d="M0 0h377v254H0z"/>
        </clipPath>
    </defs>
    <rect fill="#fbfbfb" class="highcharts-background" width="485" height="415" rx="0" ry="0"/>
    <path fill="none" class="highcharts-plot-background" d="M58 90h377v254H58z"/>
    <text transform="translate(10 451)" class="highcharts-label" cursor="pointer">
        <tspan>&gt; Indikator-Details</tspan>
    </text>
    <g class="highcharts-grid highcharts-xaxis-grid">
        <path fill="none" class="highcharts-grid-line" d="M183.5 90v254m0-254v254m125-254v254m0-254v254m126-254v254m0-254v254M57.5 90v254m0-254v254"/>
    </g>
    <g class="highcharts-grid highcharts-yaxis-grid">
        <path fill="none" stroke="#e6e6e6" class="highcharts-grid-line" d="M58 344.5h377m-377-63h377m-377-64h377m-377-63h377m-377-65h377"/>
    </g>
    <g class="highcharts-grid highcharts-yaxis-grid">
        <path fill="none" stroke="#e6e6e6" class="highcharts-grid-line" d="M58 344.5h377m-377-63h377m-377-64h377m-377-63h377m-377-65h377"/>
    </g>
    <path fill="none" class="highcharts-plot-border" d="M58 90h377v254H58z"/>
    <g class="highcharts-axis highcharts-xaxis">
        <path fill="none" class="highcharts-axis-line" stroke="#ccd6eb" d="M58 344.5h377"/>
    </g>
    <g class="highcharts-axis highcharts-yaxis">
        <path fill="none" class="highcharts-axis-line" d="M58 90v254"/>
    </g>
    <g class="highcharts-axis highcharts-yaxis">
        <path fill="none" class="highcharts-axis-line" d="M435 90v254"/>
    </g>
    <g class="highcharts-series-group">
        <g class="highcharts-series highcharts-series-0 highcharts-column-series highcharts-color-undefined highcharts-tracker" transform="translate(58 90)" clip-path="url(#a)">
            <path fill="#FF8028" class="highcharts-point" d="M33 29h61v226H33zm125 15h61v211h-61zm126 21h61v190h-61z"/>
        </g>
        <g class="highcharts-series highcharts-series-1 highcharts-line-series highcharts-color-undefined" transform="translate(58 90)" clip-path="url(#b)">
            <path fill="none" d="M62.833 55.033L188.5 71.967l125.667 21.166" class="highcharts-graph" stroke="#DC440E" stroke-width="2" stroke-linejoin="round" stroke-linecap="round"/>
            <path fill="none" d="M52.833 55.033h10L188.5 71.967l125.667 21.166h10" stroke-linejoin="round" stroke="rgba(192,192,192,0.0001)" stroke-width="22" class="highcharts-tracker"/>
        </g>
    </g>
    <text x="10" class="highcharts-title" y="20" color="#000" font-size="1.1em" font-weight="700">
        <tspan>CO2-Emissionen</tspan>
    </text>
    <text x="10" class="highcharts-subtitle" y="38" color="#000" font-size=".9em">
        <tspan>Tonnen</tspan>
    </text>
    <g class="highcharts-legend" transform="translate(10 40)">
        <rect fill="none" class="highcharts-legend-box" rx="0" ry="0" width="371" height="38"/>
        <g class="highcharts-legend-item highcharts-column-series highcharts-color-undefined highcharts-series-0">
            <text x="21" y="15" color="#333" font-size="1em" font-weight="400" cursor="pointer" fill="#333" transform="translate(12 7)">
                <tspan>BS: Tonnen</tspan>
            </text>
            <path fill="#FF8028" class="highcharts-point" d="M14 11h12v12H14z"/>
        </g>
        <g class="highcharts-legend-item highcharts-line-series highcharts-color-undefined highcharts-series-1">
            <path fill="none" d="M116.344 18h16" class="highcharts-graph" stroke="#DC440E" stroke-width="2"/>
            <text x="21" y="15" color="#333" font-size="1em" font-weight="400" cursor="pointer" fill="#333" transform="translate(116.344 7)">
                <tspan>BS: Tonnen pro Einwohner (rechte Skala)</tspan>
            </text>
        </g>
    </g>
    <g class="highcharts-axis-labels highcharts-xaxis-labels" text-anchor="middle" color="#000" cursor="default" font-size=".9em">
        <text x="120.833" y="363">
            <tspan>2010</tspan>
        </text>
        <text x="246.5" y="363">
            <tspan>2012</tspan>
        </text>
        <text x="372.167" y="363">
            <tspan>2014</tspan>
        </text>
    </g>
    <g class="highcharts-axis-labels highcharts-yaxis-labels" text-anchor="end" color="#000" cursor="default" font-size=".9em">
        <text x="43" y="349">
            <tspan>0</tspan>
        </text>
        <text x="43" y="285">
            <tspan>250k</tspan>
        </text>
        <text x="43" y="222">
            <tspan>500k</tspan>
        </text>
        <text x="43" y="158">
            <tspan>750k</tspan>
        </text>
        <text x="43" y="95">
            <tspan>1 000k</tspan>
        </text>
    </g>
    <g class="highcharts-axis-labels highcharts-yaxis-labels" color="#000" cursor="default" font-size=".9em">
        <text x="450" y="349">
            <tspan>0</tspan>
        </text>
        <text x="450" y="285">
            <tspan>1.5</tspan>
        </text>
        <text x="450" y="222">
            <tspan>3</tspan>
        </text>
        <text x="450" y="158">
            <tspan>4.5</tspan>
        </text>
        <text x="450" y="95">
            <tspan>6</tspan>
        </text>
    </g>
    <text x="10" class="highcharts-credits" y="400" cursor="default" color="#000" font-size=".8em">
        <tspan>Quelle: Statistisches Amt Basel-Stadt; Statistisches Amt Basel-Landschaft</tspan>
    </text>
</svg>

<?xml version="1.0" standalone="no"?><!DOCTYPE svg PUBLIC "-//W3C//DTD SVG 1.1//EN" "http://www.w3.org/Graphics/SVG/1.1/DTD/svg11.dtd"><svg xmlns:xlink="http://www.w3.org/1999/xlink" version="1.1" class="highcharts-root" style="font-family:arial;font-size:9pt;" xmlns="http://www.w3.org/2000/svg" width="485" height="415"><desc>Created with Highstock 5.0.14</desc><defs><clipPath id="highcharts-e2ohef4-8"><rect x="0" y="0" width="377" height="254" fill="none"></rect></clipPath><clipPath id="highcharts-e2ohef4-9"><rect x="0" y="0" width="377" height="254" fill="none"></rect></clipPath><clipPath id="highcharts-e2ohef4-10"><rect x="0" y="0" width="377" height="254" fill="none"></rect></clipPath></defs><rect fill="#fbfbfb" class="highcharts-background" x="0" y="0" width="485" height="415" rx="0" ry="0"></rect><rect fill="none" class="highcharts-plot-background" x="58" y="90" width="377" height="254"></rect><g class="highcharts-label" style="cursor:pointer;" transform="translate(10,451)"><text x="0" y="0"><tspan>&gt; Indikator-Details</tspan></text></g><g class="highcharts-pane-group"></g><g class="highcharts-grid highcharts-xaxis-grid "><path fill="none" class="highcharts-grid-line" d="M 183.5 90 L 183.5 344" opacity="1"></path><path fill="none" class="highcharts-grid-line" d="M 308.5 90 L 308.5 344" opacity="1"></path><path fill="none" class="highcharts-grid-line" d="M 434.5 90 L 434.5 344" opacity="1"></path><path fill="none" class="highcharts-grid-line" d="M 57.5 90 L 57.5 344" opacity="1"></path></g><g class="highcharts-grid highcharts-yaxis-grid "><path fill="none" stroke="#e6e6e6" stroke-width="1" class="highcharts-grid-line" d="M 58 344.5 L 435 344.5" opacity="1"></path><path fill="none" stroke="#e6e6e6" stroke-width="1" class="highcharts-grid-line" d="M 58 281.5 L 435 281.5" opacity="1"></path><path fill="none" stroke="#e6e6e6" stroke-width="1" class="highcharts-grid-line" d="M 58 217.5 L 435 217.5" opacity="1"></path><path fill="none" stroke="#e6e6e6" stroke-width="1" class="highcharts-grid-line" d="M 58 154.5 L 435 154.5" opacity="1"></path><path fill="none" stroke="#e6e6e6" stroke-width="1" class="highcharts-grid-line" d="M 58 89.5 L 435 89.5" opacity="1"></path></g><g class="highcharts-grid highcharts-yaxis-grid "><path fill="none" stroke="#e6e6e6" stroke-width="1" class="highcharts-grid-line" d="M 58 344.5 L 435 344.5" opacity="1"></path><path fill="none" stroke="#e6e6e6" stroke-width="1" class="highcharts-grid-line" d="M 58 281.5 L 435 281.5" opacity="1"></path><path fill="none" stroke="#e6e6e6" stroke-width="1" class="highcharts-grid-line" d="M 58 217.5 L 435 217.5" opacity="1"></path><path fill="none" stroke="#e6e6e6" stroke-width="1" class="highcharts-grid-line" d="M 58 154.5 L 435 154.5" opacity="1"></path><path fill="none" stroke="#e6e6e6" stroke-width="1" class="highcharts-grid-line" d="M 58 89.5 L 435 89.5" opacity="1"></path></g><rect fill="none" class="highcharts-plot-border" x="58" y="90" width="377" height="254"></rect><g class="highcharts-axis highcharts-xaxis "><path fill="none" class="highcharts-axis-line" stroke="#ccd6eb" stroke-width="1" d="M 58 344.5 L 435 344.5"></path></g><g class="highcharts-axis highcharts-yaxis "><path fill="none" class="highcharts-axis-line" d="M 58 90 L 58 344"></path></g><g class="highcharts-axis highcharts-yaxis "><text x="475.265625" text-anchor="middle" transform="translate(0,0) rotate(90 475.265625 217)" class="highcharts-axis-title" style="color:#000000;font-size:0.9em;fill:#000000;" y="217"></text><path fill="none" class="highcharts-axis-line" d="M 435 90 L 435 344"></path></g><g class="highcharts-series-group"><g class="highcharts-series highcharts-series-0 highcharts-column-series highcharts-color-undefined " transform="translate(58,90) scale(1 1)" clip-path="url(#highcharts-e2ohef4-9)"><rect x="33" y="29" width="61" height="226" fill="#FF8028" class="highcharts-point"></rect><rect x="158" y="44" width="61" height="211" fill="#FF8028" class="highcharts-point"></rect><rect x="284" y="65" width="61" height="190" fill="#FF8028" class="highcharts-point"></rect></g><g class="highcharts-markers highcharts-series-0 highcharts-column-series highcharts-color-undefined " transform="translate(58,90) scale(1 1)" clip-path="none"></g><g class="highcharts-series highcharts-series-1 highcharts-line-series highcharts-color-undefined " transform="translate(58,90) scale(1 1)" clip-path="url(#highcharts-e2ohef4-10)"><path fill="none" d="M 62.833333333333 55.0333333333333 L 188.5 71.96666666666667 L 314.16666666667 93.13333333333333" class="highcharts-graph" stroke="#DC440E" stroke-width="2" stroke-linejoin="round" stroke-linecap="round"></path></g><g class="highcharts-markers highcharts-series-1 highcharts-line-series highcharts-color-undefined " transform="translate(58,90) scale(1 1)" clip-path="none"></g></g><text x="10" text-anchor="start" class="highcharts-title" style="color:#000000;font-size:1.1em;font-weight:bold;fill:#000000;" y="20"><tspan>CO2-Emissionen</tspan></text><text x="10" text-anchor="start" class="highcharts-subtitle" style="color:#000000;font-size:0.9em;fill:#000000;" y="38"><tspan>Tonnen</tspan></text><g class="highcharts-legend" transform="translate(10,40)"><rect fill="none" class="highcharts-legend-box" rx="0" ry="0" x="0" y="0" width="371" height="38" visibility="visible"></rect><g><g><g class="highcharts-legend-item highcharts-column-series highcharts-color-undefined highcharts-series-0" transform="translate(12,7)"><text x="21" style="color:#333333;font-size:1em;font-weight:normal;cursor:pointer;fill:#333333;" text-anchor="start" y="15"><tspan>BS: Tonnen</tspan></text><rect x="2" y="4" width="12" height="12" fill="#FF8028" class="highcharts-point"></rect></g><g class="highcharts-legend-item highcharts-line-series highcharts-color-undefined highcharts-series-1" transform="translate(116.34375,7)"><path fill="none" d="M 0 11 L 16 11" class="highcharts-graph" stroke="#DC440E" stroke-width="2"></path><text x="21" y="15" style="color:#333333;font-size:1em;font-weight:normal;cursor:pointer;fill:#333333;" text-anchor="start"><tspan>BS: Tonnen pro Einwohner (rechte Skala)</tspan></text></g></g></g></g><g class="highcharts-axis-labels highcharts-xaxis-labels "><text x="120.83333333333334" style="color:#000000;cursor:default;font-size:0.9em;fill:#000000;" text-anchor="middle" transform="translate(0,0)" y="363" opacity="1"><tspan>2010</tspan></text><text x="246.50000000000003" style="color:#000000;cursor:default;font-size:0.9em;fill:#000000;" text-anchor="middle" transform="translate(0,0)" y="363" opacity="1"><tspan>2012</tspan></text><text x="372.1666666666667" style="color:#000000;cursor:default;font-size:0.9em;fill:#000000;" text-anchor="middle" transform="translate(0,0)" y="363" opacity="1"><tspan>2014</tspan></text></g><g class="highcharts-axis-labels highcharts-yaxis-labels "><text x="43" style="color:#000000;cursor:default;font-size:0.9em;fill:#000000;" text-anchor="end" transform="translate(0,0)" y="349" opacity="1"><tspan>0</tspan></text><text x="43" style="color:#000000;cursor:default;font-size:0.9em;fill:#000000;" text-anchor="end" transform="translate(0,0)" y="285" opacity="1"><tspan>250k</tspan></text><text x="43" style="color:#000000;cursor:default;font-size:0.9em;fill:#000000;" text-anchor="end" transform="translate(0,0)" y="222" opacity="1"><tspan>500k</tspan></text><text x="43" style="color:#000000;cursor:default;font-size:0.9em;fill:#000000;" text-anchor="end" transform="translate(0,0)" y="158" opacity="1"><tspan>750k</tspan></text><text x="43" style="color:#000000;cursor:default;font-size:0.9em;fill:#000000;" text-anchor="end" transform="translate(0,0)" y="95" opacity="1"><tspan>1 000k</tspan></text></g><g class="highcharts-axis-labels highcharts-yaxis-labels "><text x="450" style="color:#000000;cursor:default;font-size:0.9em;fill:#000000;" text-anchor="start" transform="translate(0,0)" y="349" opacity="1"><tspan>0</tspan></text><text x="450" style="color:#000000;cursor:default;font-size:0.9em;fill:#000000;" text-anchor="start" transform="translate(0,0)" y="285" opacity="1"><tspan>1.5</tspan></text><text x="450" style="color:#000000;cursor:default;font-size:0.9em;fill:#000000;" text-anchor="start" transform="translate(0,0)" y="222" opacity="1"><tspan>3</tspan></text><text x="450" style="color:#000000;cursor:default;font-size:0.9em;fill:#000000;" text-anchor="start" transform="translate(0,0)" y="158" opacity="1"><tspan>4.5</tspan></text><text x="450" style="color:#000000;cursor:default;font-size:0.9em;fill:#000000;" text-anchor="start" transform="translate(0,0)" y="95" opacity="1"><tspan>6</tspan></text></g><text x="10" class="highcharts-credits" text-anchor="start" style="cursor:default;color:#000000;font-size:0.8em;fill:#000000;" y="400"><tspan>Quelle: Statistisches Amt Basel-Stadt; Statistisches Amt Basel-Landschaft</tspan></text></svg>
